src/assets/tokens/usda.svg

<svg xmlns="http://www.w3.org/2000/svg" fill="none" viewBox="0 0 1051 1051"><circle cx="525.5" cy="525.5" r="525.5" fill="#000"/><path fill="#fff" d="M454.941 354.629h68.518L368.256 696.625h-68.518zm137.072 0h-68.518l155.202 341.996h68.518zm-69.114 168.913 68.399 173.675H454.5z"/><path fill="#fff" d="M900.106 578.282c-26.425 182.811-183.751 323.265-373.882 323.265S178.767 761.093 152.341 578.282h-58.92c26.831 215.161 210.374 381.654 432.803 381.654s405.972-166.493 432.802-381.654zM152.341 469.238c26.426-182.812 183.752-323.266 373.883-323.266s347.457 140.454 373.882 323.266h58.92C932.196 254.076 748.653 87.583 526.224 87.583S120.252 254.076 93.422 469.238z"/></svg>

<svg width="1051" height="1051" viewBox="0 0 1051 1051" fill="none" xmlns="http://www.w3.org/2000/svg">
<circle cx="525.5" cy="525.5" r="525.5" fill="black"/>
<path d="M454.941 354.629H523.459L368.256 696.625H299.738L454.941 354.629Z" fill="white"/>
<path d="M592.013 354.629H523.495L678.697 696.625H747.215L592.013 354.629Z" fill="white"/>
<path d="M522.899 523.542L591.298 697.217H454.5L522.899 523.542Z" fill="white"/>
<path d="M900.106 578.282C873.681 761.093 716.355 901.547 526.224 901.547C336.093 901.547 178.767 761.093 152.341 578.282H93.4219C120.252 793.443 303.795 959.936 526.224 959.936C748.653 959.936 932.196 793.443 959.026 578.282H900.106Z" fill="white"/>
<path d="M152.341 469.238C178.767 286.426 336.093 145.972 526.224 145.972C716.355 145.972 873.681 286.426 900.106 469.238H959.026C932.196 254.076 748.653 87.583 526.224 87.583C303.795 87.583 120.252 254.076 93.4219 469.238H152.341Z" fill="white"/>
</svg>
